src/pos-icons/doorbell.svg

<svg height="24" viewBox="0 0 24 24" width="24" xmlns="http://www.w3.org/2000/svg"><path d="m12 10c-1.1 0-2 .9-2 2s.9 2 2 2 2-.9 2-2-.9-2-2-2m4-8h-8c-1.1 0-2 .9-2 2v16c0 1.1.9 2 2 2h8c1.1 0 2-.9 2-2v-16c0-1.1-.9-2-2-2m0 18h-8v-16h8z"/></svg>

<?xml version="1.0" encoding="UTF-8"?><!DOCTYPE svg PUBLIC "-//W3C//DTD SVG 1.1//EN" "http://www.w3.org/Graphics/SVG/1.1/DTD/svg11.dtd"><svg xmlns="http://www.w3.org/2000/svg" xmlns:xlink="http://www.w3.org/1999/xlink" version="1.1" id="mdi-doorbell" width="24" height="24" viewBox="0 0 24 24"><path d="M12 10C10.9 10 10 10.9 10 12S10.9 14 12 14 14 13.1 14 12 13.1 10 12 10M16 2H8C6.9 2 6 2.9 6 4V20C6 21.1 6.9 22 8 22H16C17.1 22 18 21.1 18 20V4C18 2.9 17.1 2 16 2M16 20H8V4H16V20Z" /></svg>
